X: 1
T: The Golden Keyboard
L: 1/8
M: 4/4
K: D
BGEF GFGA | B2 gB fBeB | BGEF GBAG | (3FED AD BDAD | 
EDEF GFGA | B2 gB fBeB | d2 de dBAF | DFAF GE E2 ||
Be ~e2 Be ~e2 | Beef edBc | dA ~A2 eA ~A2 | d2 de dBAF |
EDEF GFGA | B2 gB fBeB | d2 ded BAF | DFAF GE E2 ||